X: 26
T:Rambler from Ross, The (#76)
M:6/8
L:1/8
S:Capt. F. O'Neill
K:G
G|DEG "tr"B2 G|AGA "tr"B2 G|DEG "tr"B2G|"tr"AGE E2 G|
DEG "tr"B2 G|AGA "tr"B2 G|DEG GBA|GED D2||
G|"tr"BAB "tr"dBG|"tr"AGE "tr"AGE|"tr"BAB "tr"dBG|"tr"AGE "tr"E2 D|
"tr":BAB "tr"dBG|"tr"AGE "tr"GED|DEG GBA|"tr"GED D2||
%
% This marching tune above was another of McLean's favorites
% which seems to be unknown to the pipers of this generation.
% The original name not being ascertained, a suggested title
% is here presented. McLean was a native of Ross, Scotland.

